svg/questions.svg

<?xml version="1.0" encoding="UTF-8"?>
<svg xmlns="http://www.w3.org/2000/svg" xmlns:xlink="http://www.w3.org/1999/xlink" width="32" height="32" viewBox="0 0 32 32">
<path fill-rule="nonzero" fill="rgb(0%, 0%, 0%)" fill-opacity="1" d="M 3.839844 0 C 3.488281 0 3.199219 0.289062 3.199219 0.640625 L 3.199219 28.800781 C 3.199219 28.96875 3.265625 29.132812 3.386719 29.253906 C 3.507812 29.375 3.671875 29.441406 3.839844 29.441406 L 25.601562 29.441406 C 25.953125 29.441406 26.238281 29.152344 26.238281 28.800781 L 26.238281 0.640625 C 26.238281 0.289062 25.953125 0.00390625 25.601562 0 Z M 27.519531 2.558594 L 27.519531 28.800781 C 27.519531 29.859375 26.660156 30.714844 25.601562 30.71875 L 5.761719 30.71875 L 5.761719 31.359375 C 5.761719 31.714844 6.046875 32 6.398438 32 L 28.160156 32 C 28.515625 32 28.800781 31.714844 28.800781 31.359375 L 28.800781 3.199219 C 28.800781 2.847656 28.511719 2.558594 28.160156 2.558594 Z M 14.839844 6.71875 C 17.335938 6.71875 19 8.316406 19 10.621094 C 19 11.707031 18.628906 12.550781 17.859375 13.640625 L 16.320312 15.738281 C 15.871094 16.378906 15.738281 16.710938 15.738281 17.480469 L 15.738281 18.179688 C 15.738281 18.308594 15.671875 18.441406 15.480469 18.441406 L 13.960938 18.441406 C 13.894531 18.441406 13.761719 18.308594 13.761719 18.179688 L 13.761719 17.21875 C 13.761719 16.324219 13.949219 15.800781 14.460938 15.160156 L 16 13.058594 C 16.832031 11.972656 17.078125 11.453125 17.078125 10.621094 C 17.078125 9.339844 16.183594 8.519531 14.839844 8.519531 C 13.558594 8.519531 12.734375 9.273438 12.480469 10.679688 C 12.480469 10.808594 12.347656 10.878906 12.21875 10.878906 L 10.761719 10.621094 C 10.632812 10.621094 10.558594 10.488281 10.558594 10.359375 C 10.878906 8.183594 12.472656 6.71875 14.839844 6.71875 M 13.960938 20.160156 L 15.679688 20.160156 C 15.808594 20.160156 15.941406 20.226562 15.941406 20.421875 L 15.941406 22.398438 C 15.941406 22.527344 15.871094 22.660156 15.679688 22.660156 L 13.960938 22.660156 C 13.832031 22.660156 13.699219 22.59375 13.699219 22.398438 L 13.699219 20.421875 C 13.699219 20.292969 13.765625 20.160156 13.960938 20.160156 M 13.960938 20.160156 "/>
</svg>

<svg role="img" viewBox="0 0 32 32" height="32" width="32" xmlns="http://www.w3.org/2000/svg"><path d="M3.84 0c-.352 0-.64.29-.64.64V28.8a.64.64 0 0 0 .64.641h21.762a.638.638 0 0 0 .636-.64V.64a.64.64 0 0 0-.636-.64Zm23.68 2.559V28.8a1.921 1.921 0 0 1-1.918 1.918H5.762v.64c0 .356.285.641.636.641H28.16c.356 0 .64-.285.64-.64V3.2a.641.641 0 0 0-.64-.641Zm-12.68 4.16c2.496 0 4.16 1.597 4.16 3.902 0 1.086-.371 1.93-1.14 3.02l-1.54 2.097c-.449.64-.582.973-.582 1.742v.7c0 .129-.066.261-.258.261h-1.52c-.065 0-.198-.132-.198-.261v-.961c0-.895.187-1.418.699-2.059L16 13.06c.832-1.086 1.078-1.606 1.078-2.438 0-1.281-.894-2.101-2.238-2.101-1.281 0-2.106.753-2.36 2.16 0 .129-.132.199-.261.199l-1.457-.258c-.13 0-.203-.133-.203-.262.32-2.175 1.914-3.64 4.28-3.64m-.88 13.441h1.72c.129 0 .261.067.261.262v1.976c0 .13-.07.262-.261.262h-1.72c-.128 0-.26-.066-.26-.262v-1.976c0-.129.066-.262.26-.262m0 0"/></svg>
